X: 845
T: Roxanna Waltz in A
C:Bill Monroe
B: jims roots
M:3/4
L:1/8
Q: 1/4=100
K:A
V:1 
%S:The Fiddlers Fakebook
xA ce |: "A"a4 (3aba | "C#"g4 (3gag | "D"f3e (3c^BA | "A"E4 E ^EF |
"D"[d3F]F =G^G | "E"c4 (3c=cB | [1 "A"Ac3 fc | "E"[e6G]:| [2 "A"[A4c]- [Ac][Gc] | "A7"[=G3c] A Bc||
"D"d3A df | "D#dim"b3a (3faf | "A"e3f ec | e3^d (3cec |
"B7"B2 ^d2 [Af][Af] | [ca][B3g][A2f] | "E"[g3B][Af] [Bg][ca] | [d4b]- [db]A | "A"[c4a]- (3[ca][cb][ca] |
"C#"[c4g]- (3[cg][ca][cg] |"D"[f3A]e/d/ cA |"A"E4 ^EF |"D"[d4F] (3F=G^G|"E"c4 ^Bc |"A"A4 z2 | "G (back to key of C)"z6||
% abcbook-tune_id 6298c2874bc21349bb8c8231


% abcbook-boost 0
% abcbook-tablature 
% abcbook-transpose 
% abcbook-lastupdated 1654178439862
% abcbook-soundfonts 
% abcbook-repeats 1


